X:1
T:Title
%%score ( 1 2 )
L:1/8
M:4/4
I:linebreak $
K:D
V:1 treble nm="Voice" snm="Voice"
V:2 treble 
V:1
 F2 F4 D2 | dA fA eA .fA | .!^!gA fA ed cd | ed cB x5 | dA fA eA fA |$ !^!gf ed cA Bc | %6
 d2 f2 d2 [Dc]2 :: !^!eA AA fA AA | !^!gA fA eA Af | !^!gA fA ed cd |$ !^!ed cB AG F2 | %11
 Dd dd !^!ce ee | df f(f .[Fe]2 g2) | f(3g gf g2 e2 c2 | d2 f2 d2 :| %15
V:2
 x2 [ABg]3 x3 | x8 | x8 | x3 A2 G2 F2 | x8 |$ x8 | x8 :: x8 | x8 | x8 |$ x8 | x8 | x8 | x9 | x6 :| %15

